!!!!SEGMENT: pl-kk--kk-i-423--001-005_golabek-jakub--missa-1a-sanctus.krn
!!!cenid: 17xx:2555
!!!COM: Gołąbek, Jakub
!!!COM-rismID: pe30008748
!!!CDT: 1739-1789/03/30
!!!CNT: Polish
!!!OPR: Missa 1a
!!!OTL: Sanctus
!!!OMV: 005
!!!PDT:
!!!AGN: Sacred; Mass
!!!YEC: Copyright 2022 Narodowy Instytut Fryderyka Chopina (https://polishscores.org)
!!!YEM: License CC-BY-4.0 (https://creativecommons.org/licenses/by/4.0)
!!!SMS-siglum: PL-Kk
!!!SMS-shelfmark: Kk.I.423
!!!SMS-variant:
!!!SMS-altvar:
!!!SMS-shelfwork: 001-005 M
!!!NIFC-rismSourceID: 1001147334
!!!NIFC-rismChildID: 1001147336
!!!NIFC-islandoraID:
!!!URL-pdf-islandora: https://repozytorium.nifc.pl/islandora/object/pl-kk%3A10566/datastream/PDF/view
!!!URL-scan: https://polish.musicsources.pl/pl/lokalizacje/galeria/rekopisy/6034-masses/3 @EN{Scan on Polish Music Sources Website} @PL{Skany w portalu Dziedzictwo Muzyki Polskiej w otwartym dostępie}
!!!IIIF:
!!!ONB-nifc: UWAGA: C – skan 3-4, A – 7-8, T – 11-12, B – 15-16. Części Mszy: Kyrie, Christe, Et in terra, Quoniam, Sanctus (+Osanna), Benedictus, Agnus Dei.
!!!AIN: 1 alto 1 bass 1 canto 1 tenor
!!!key:
**kern	**text	**dynam	**kern	**text	**dynam	**kern	**text	**dynam	**kern	**text	**dynam
*part4	*part4	*part4	*part3	*part3	*part3	*part2	*part2	*part2	*part1	*part1	*
*staff4	*staff4	*	*staff3	*staff3	*	*staff2	*staff2	*	*staff1	*staff1	*
*I"Basso	*	*	*I"Tenore	*	*	*I"Alto	*	*	*I"Canto	*	*
*I'B.	*	*	*I'T.	*	*	*I'A.	*	*	*I'C.	*	*
*Ibass	*	*	*Itenor	*	*	*Ialto	*	*	*Icanto	*	*
*ICvox	*	*	*ICvox	*	*	*ICvox	*	*	*ICvox	*	*
*clefF4	*	*	*clefC4	*	*	*clefC3	*	*	*clefC1	*	*
*k[]	*	*	*k[]	*	*	*k[]	*	*	*k[]	*	*
*C:	*	*	*C:	*	*	*C:	*	*	*C:	*	*
*M2/2	*	*	*M2/2	*	*	*M2/2	*	*	*M2/2	*	*
*met(c|)	*	*	*met(c|)	*	*	*met(c|)	*	*	*met(c|)	*	*
=1	=1	=1	=1	=1	=1	=1	=1	=1	=1	=1	=1
*2\right	*	*	*2\right	*	*	*2\right	*	*	*2\right	*	*
2C/	San-	.	2c\	San-	.	2e\	San-	.	2g/	San-	.
2G\	-ctus	.	2B\	-ctus	.	2d\	-ctus	.	2g/	-ctus	.
=2	=2	=2	=2	=2	=2	=2	=2	=2	=2	=2	=2
!LO:TX:a:t=1	!	!	!	!	!LO:DY:a	!	!	!	!LO:TX:a:t=1	!	!
1r	.	.	8G\L	San-	p	8B\L	San-	.	1r	.	.
.	.	.	8A\	.	.	8c\	.	.	.	.	.
.	.	.	8A\	.	.	8c\	.	.	.	.	.
.	.	.	8B\J	.	.	8d\J	.	.	.	.	.
.	.	.	8B\L	.	.	8d\L	.	.	.	.	.
.	.	.	8c\	.	.	8e\	.	.	.	.	.
.	.	.	8c\	.	.	8e\	.	.	.	.	.
.	.	.	8d\J	.	.	8f\J	.	.	.	.	.
=3	=3	=3	=3	=3	=3	=3	=3	=3	=3	=3	=3
!	!	!	!	!	!LO:DY:a	!	!	!	!	!	!
2G\	San-	.	2d\	.	f	2f\	.	.	2b\	San-	.
2C/	-ctus	.	2c\	-ctus	.	2e\	-ctus	.	2g\	-ctus	.
=4	=4	=4	=4	=4	=4	=4	=4	=4	=4	=4	=4
!	!	!	!	!	!LO:DY:a	!	!	!	!LO:TX:a:t=1	!	!
2r	.	.	8e\L	San-	p	8g\L	San-	.	1r	.	.
.	.	.	8d\	.	.	8f\	.	.	.	.	.
.	.	.	8d\	.	.	8f\	.	.	.	.	.
.	.	.	8c\J	.	.	8e\J	.	.	.	.	.
4r	.	.	8e\L	.	.	8g\L	.	.	.	.	.
.	.	.	8d\	.	.	8f\	.	.	.	.	.
4C/	San-	.	8d\	.	.	8f\	.	.	.	.	.
.	.	.	8c\J	.	.	8e\J	.	.	.	.	.
=5	=5	=5	=5	=5	=5	=5	=5	=5	=5	=5	=5
!	!	!	!	!	!LO:DY:a	!	!	!	!	!	!
2G\	.	.	2c\	.	f	2e\	.	.	2g/	San-	.
2GG/	-ctus	.	2B\	-ctus	.	2d\	-ctus	.	2g/	-ctus	.
=6	=6	=6	=6	=6	=6	=6	=6	=6	=6	=6	=6
!	!	!LO:DY:a	!	!	!LO:DY:a	!	!	!LO:DY:a	!LO:TX:a:t=1	!	!
4G\	Do-	p	4B\	Do-	p	4d\	Do-	p	1r	.	.
8G\	-mi-	.	8B\	-mi-	.	8d\	-mi-	.	.	.	.
8G\	-nus	.	8c\	-nus	.	8e\	-nus	.	.	.	.
4G\	de-	.	8d\L	De-	.	8f\L	De-	.	.	.	.
.	.	.	8c\J	.	.	8e\J	.	.	.	.	.
4G\	-us	.	8d\	-us	.	8f\	.	.	.	.	.
.	.	.	8B\	.	.	8d\	-us	.	.	.	.
!	!	!	!LO:LB:g=original	!	!	!LO:LB:g=original	!	!	!	!	!
=7	=7	=7	=7	=7	=7	=7	=7	=7	=7	=7	=7
!	!	!	!LO:TX:a:t=1	!	!	!	!	!	!	!	!
4C/	Do-	.	1r	.	.	4e\	Do-	.	4cc\	Do-	p
8C/	-mi-	.	.	.	.	8e\	-mi-	.	8cc\	-mi-	.
8C/	-nus	.	.	.	.	8f\	-nus	.	8dd\	-nus	.
!LO:LB:g=original	!	!	!	!	!	!	!	!	!	!	!
4C/	De-	.	.	.	.	8g\L	De-	.	8ee\L	De-	.
.	.	.	.	.	.	8f\J	.	.	8dd\J	.	.
4C/	-us	.	.	.	.	8g\	.	.	8ee\	.	.
.	.	.	.	.	.	8e\	-us	.	8cc\	-us	.
=8	=8	=8	=8	=8	=8	=8	=8	=8	=8	=8	=8
!	!	!LO:DY:a	!	!	!	!	!	!LO:DY:a	!	!	!
4C/	Sa-	f	2.e\	Sa-	.	2.g\	Sa-	f	2.cc\	Sa-	f
4c\	.	.	.	.	.	.	.	.	.	.	.
4A\	.	.	.	.	.	.	.	.	.	.	.
4F#X\	-ba-	.	4d\	-ba-	.	4f#X\	-ba-	.	4a\	-ba-	.
=9	=9	=9	=9	=9	=9	=9	=9	=9	=9	=9	=9
2G\	-oth	.	1d	-oth	.	1g;	-oth	.	1b	-oth	.
2r;	.	.	.	.	.	.	.	.	.	.	.
!	!	!	!	!	!	!	!	!	!LO:LB:g=original	!	!
=10||	=10||	=10||	=10||	=10||	=10||	=10||	=10||	=10||	=10||	=10||	=10||
2G\	Ple-	.	2B\	Ple-	.	2g\	Ple-	.	2dd\	Ple-	.
4A\	-ni-	.	4c\	-ni-	.	4f#X\	-ni-	.	4cc\	-ni-	.
4B\	-sunt	.	4d\	-sunt	.	4fn\	-sunt	.	4g/	-sunt	.
=11	=11	=11	=11	=11	=11	=11	=11	=11	=11	=11	=11
4c\	Ce-	.	4c\	Ce-	.	4e\	Ce-	.	2g/	Ce-	.
4G\	.	.	4d\	.	.	4f\	-li-	.	.	.	.
.	.	.	.	.	.	8qqa/	.	.	.	.	.
4E\	-li	.	4e\	-li	.	4g\	.	.	4g/	-li	.
4C\	et	.	8d\L	et	.	8f\L	-et	.	4g/	et	.
.	.	.	8c\J	.	.	8e\J	.	.	.	.	.
=12	=12	=12	=12	=12	=12	=12	=12	=12	=12	=12	=12
2G\	ter-	.	2d\	ter-	.	2e\	ter-	.	2g/	ter-	.
2GG/	-ra	.	2c\	-ra	.	2d\	-re	.	2g/	-ra	.
=13	=13	=13	=13	=13	=13	=13	=13	=13	=13	=13	=13
2GG/	glo-	.	4B\	glo-	.	4d\	glo-	.	2g/	glo-	.
.	.	.	4c\	.	.	4e\	.	.	.	.	.
!	!	!	!	!	!	!LO:LB:g=original	!	!	!	!	!
4G\	.	.	4d\	.	.	4f\	-ri-	.	4g/	-ri-	.
8F\	-ri-	.	8c\	-ri-	.	8e\	-a	.	4g/	-a	.
8F\	-a	.	8B\	-a	.	8d\	.	.	.	.	.
!LO:LB:g=original	!	!	!LO:LB:g=original	!	!	!	!	!	!	!	!
=14	=14	=14	=14	=14	=14	=14	=14	=14	=14	=14	=14
4E\	tu-	.	4c\	tu-	.	4e\	tu-	.	4g\	tu-	.
4D\	.	.	4d\	.	.	4f\	.	.	4b\	.	.
2C/	-a	.	2e\	-a	.	2g\	-a	.	2cc\	-a	.
=15	=15	=15	=15	=15	=15	=15	=15	=15	=15	=15	=15
2BB/	glo-	.	2d\	glo-	.	2g\	glo-	.	2g/	glo-	.
4C/	-ri-	.	4e\	-ri-	.	4g\	-ri-	.	4g/	-ri-	.
4C/	-a	.	4e\	-a	.	4g\	-a	.	4g/	-a	.
=16	=16	=16	=16	=16	=16	=16	=16	=16	=16	=16	=16
2G\	tu-	.	2e\	tu-	.	1g	tu-	.	2cc\	tu-	.
2GG/	.	.	2d\	.	.	.	.	.	2b\	.	.
=17	=17	=17	=17	=17	=17	=17	=17	=17	=17	=17	=17
1C	-a	.	1e	-a	.	1g	-a	.	2cc\	-a	.
.	.	.	.	.	.	.	.	.	2r	.	.
!	!	!	!	!	!	!	!	!	!LO:LB:g=original	!	!
=18||	=18||	=18||	=18||	=18||	=18||	=18||	=18||	=18||	=18||	=18||	=18||
!LO:TX:a:t=all(egr)o	!	!	!LO:TX:a:t=all(egr)o	!	!	!LO:TX:a:t=All(egr)o	!	!	!	!	!
4C/	O-	.	2e\	O-	.	2g\	O-	.	2cc\	O-	.
4E\	.	.	.	.	.	.	.	.	.	.	.
4G\	.	.	2d\	-san-	.	2f\	-san-	.	2b\	-san-	.
4GG/	-san-	.	.	.	.	.	.	.	.	.	.
=19	=19	=19	=19	=19	=19	=19	=19	=19	=19	=19	=19
2C/	-na	.	2c\	-na	.	2e\	-na	.	2g/	-na	.
2r	.	.	4r	.	.	4r	.	.	2r	.	.
.	.	.	4G/	o-	.	4e\	O-	.	.	.	.
=20	=20	=20	=20	=20	=20	=20	=20	=20	=20	=20	=20
!LO:TX:a:t=1	!	!	!	!	!	!	!	!	!LO:TX:a:t=1	!	!
1r	.	.	4A/	-san-	.	4f\	-san-	.	1r	.	.
.	.	.	4G/	-na	.	4e\	-na	.	.	.	.
.	.	.	4A/	in	.	4f\	in	.	.	.	.
.	.	.	4B/	ex-	.	4d\	ex-	.	.	.	.
!LO:LB:g=original	!	!	!LO:LB:g=original	!	!	!LO:LB:g=original	!	!	!	!	!
=21	=21	=21	=21	=21	=21	=21	=21	=21	=21	=21	=21
2r	.	.	4c\	-cel-	.	4e\	-cel-	.	2r	.	.
.	.	.	4d\	.	.	4f\	.	.	.	.	.
4r	.	.	4e\	-sis	.	4g\	-sis	.	4r	.	.
4C/	O-	.	4e\	o-	.	4g\	O-	.	4cc\	O-	.
=22	=22	=22	=22	=22	=22	=22	=22	=22	=22	=22	=22
4C/	-san-	.	4e\	-san-	.	4g\	-san-	.	2cc\	-san-	.
4BB/	.	.	4d\	.	.	4f\	.	.	.	.	.
4BB/	.	.	4d\	.	.	4f\	.	.	2g\	.	.
4C/	.	.	4c\	.	.	4e\	.	.	.	.	.
=23	=23	=23	=23	=23	=23	=23	=23	=23	=23	=23	=23
2GG/	-na	.	2B\	-na	.	2d\	-na	.	2g\	-na	.
4r	.	.	4r	.	.	4r	.	.	4r	.	.
4G\	O-	.	8B\L	o-	.	8d\L	O-	.	4g\	o-	.
.	.	.	8c\J	.	.	8e\J	.	.	.	.	.
=24	=24	=24	=24	=24	=24	=24	=24	=24	=24	=24	=24
4G\	-san-	.	4d\	-san-	.	4f\	-san-	.	4b\	-san-	.
4D\	-na	.	4d\	-na	.	4f\	-na	.	4b\	-na	.
.	.	.	8qqe/	.	.	8qg/	.	.	.	.	.
4BB/	in	.	4d\	in	.	4f\	in	.	4b\	in	.
4GG/	ex-	.	8c\L	ex-	.	8e\L	ex-	.	4b\	ex-	.
.	.	.	8B\J	.	.	8d\J	.	.	.	.	.
=25	=25	=25	=25	=25	=25	=25	=25	=25	=25	=25	=25
4C/	-cel-	.	4c\	-cel-	.	4e\	-cel-	.	2g/	-cel-	.
4BB/	.	.	4d\	.	.	4f\	-sis	.	.	.	.
4C/	-sis	.	4c\	-sis	.	4e\	.	.	4g/	-sis	.
4E\	in	.	4e\	in	.	4g\	in	.	4cc\	in	.
=26	=26	=26	=26	=26	=26	=26	=26	=26	=26	=26	=26
4F\	.	.	4f\	.	.	4a\	.	.	4cc\	ex-	.
4F\	ex-	.	8e\L	ex-	.	8g\L	ex-	.	4a\	-cel-	.
.	.	.	8d\J	.	.	8f\J	.	.	.	.	.
2G\	-cel-	.	4c\	-cel-	.	4e\	-cel-	.	2g/	-cel-	.
.	.	.	4B\	.	.	4d\	.	.	.	.	.
=27	=27	=27	=27	=27	=27	=27	=27	=27	=27	=27	=27
1C	-sis	.	2c\	-sis	.	1e	-sis	.	1g	-sis	.
.	.	.	2r	.	.	.	.	.	.	.	.
==	==	==	==	==	==	==	==	==	==	==	==
*-	*-	*-	*-	*-	*-	*-	*-	*-	*-	*-	*-
!!!system-decoration: [(s1,s2,s3,s4)]
!!!ENC: Berenika Jozajtis
!!!END: 2024-02-06
!!!ENC: Leszek Kubiak
!!!END: 2024-08-05
